Sources/FrostedUI/Resources/Icons.xcassets/messageNotification32.imageset/message-notification-32.svg

<svg width="32" height="32" viewBox="0 0 32 32" fill="none" xmlns="http://www.w3.org/2000/svg" data-fui-icon="true">
  <path
    d="M17 4.25C17.414 4.2502 17.75 4.58591 17.75 5C17.75 5.41409 17.414 5.7498 17 5.75H6.33398C5.27544 5.75 4.41699 6.60845 4.41699 7.66699V21.667C4.41717 22.7254 5.27554 23.583 6.33398 23.583H11.5361C12.0254 23.5831 12.499 23.7561 12.874 24.0703L15.6279 26.3779C15.8435 26.5585 16.158 26.5596 16.375 26.3799L19.1729 24.0625C19.5465 23.753 20.017 23.583 20.502 23.583H25.667C26.7253 23.5828 27.5838 22.7253 27.584 21.667V16.333C27.5842 15.9189 27.9199 15.583 28.334 15.583C28.7478 15.5834 29.0838 15.9192 29.084 16.333V21.667C29.0838 23.5537 27.5537 25.0828 25.667 25.083H20.502C20.3661 25.083 20.2342 25.1314 20.1299 25.2178L17.332 27.5352C16.5577 28.1766 15.4348 28.1733 14.6641 27.5273L11.9111 25.2197C11.8062 25.1318 11.6731 25.0831 11.5361 25.083H6.33398C4.44713 25.083 2.91717 23.5539 2.91699 21.667V7.66699C2.91699 5.78002 4.44701 4.25 6.33398 4.25H17ZM10 13.5C10.6443 13.5 11.167 14.0227 11.167 14.667C11.1668 15.3111 10.6442 15.833 10 15.833C9.35579 15.833 8.83318 15.3111 8.83301 14.667C8.83301 14.0227 9.35569 13.5 10 13.5ZM16 13.5C16.6443 13.5 17.167 14.0227 17.167 14.667C17.1668 15.3111 16.6442 15.833 16 15.833C15.3559 15.833 14.8332 15.3111 14.833 14.667C14.833 14.0227 15.3558 13.5 16 13.5ZM22 13.5C22.6443 13.5 23.167 14.0227 23.167 14.667C23.1668 15.3111 22.6442 15.833 22 15.833C21.3559 15.833 20.8332 15.3111 20.833 14.667C20.833 14.0227 21.3558 13.5 22 13.5ZM25.333 2.91699C28.1403 2.91699 30.4168 5.19269 30.417 8C30.4168 10.8073 28.1403 13.084 25.333 13.084C22.5259 13.0838 20.2502 10.8072 20.25 8C20.2502 5.1928 22.5259 2.91717 25.333 2.91699ZM25.333 4.41699C23.3543 4.41717 21.7502 6.02124 21.75 8C21.7502 9.97877 23.3543 11.5838 25.333 11.584C27.3119 11.584 28.9168 9.97888 28.917 8C28.9168 6.02113 27.3119 4.41699 25.333 4.41699Z"
    fill="currentColor"
  />
</svg>

<svg xmlns="http://www.w3.org/2000/svg" width="32" height="32" fill="none" data-fui-icon="true" viewBox="0 0 32 32"><path fill="currentColor" d="M17 4.25a.75.75 0 0 1 0 1.5H6.334a1.917 1.917 0 0 0-1.917 1.917v14c0 1.058.859 1.916 1.917 1.916h5.202c.49 0 .963.173 1.338.487l2.754 2.308c.216.18.53.182.747.002l2.798-2.317c.374-.31.844-.48 1.329-.48h5.165a1.917 1.917 0 0 0 1.917-1.916v-5.334a.75.75 0 0 1 1.5 0v5.334a3.417 3.417 0 0 1-3.417 3.416h-5.165a.6.6 0 0 0-.372.135l-2.798 2.317a2.084 2.084 0 0 1-2.668-.008l-2.753-2.307a.6.6 0 0 0-.375-.137H6.334a3.417 3.417 0 0 1-3.417-3.416v-14A3.417 3.417 0 0 1 6.334 4.25zm-7 9.25a1.167 1.167 0 1 1 0 2.335 1.167 1.167 0 0 1 0-2.335m6 0a1.167 1.167 0 1 1 0 2.335 1.167 1.167 0 0 1 0-2.335m6 0a1.167 1.167 0 1 1 0 2.335 1.167 1.167 0 0 1 0-2.335m3.333-10.583a5.084 5.084 0 1 1 0 10.168 5.084 5.084 0 0 1 0-10.168m0 1.5a3.583 3.583 0 1 0 0 7.167 3.583 3.583 0 0 0 0-7.167"/></svg>
